X: 16498
T: Hairpin Bend, The
R: jig
M: 6/8
K: Gmajor
G2 B A2 B|G3 G2 B|d2 B BAB|ded cBA|
G2 B A2 B|G3 G2 B|d2 B ABA|1 G3 G2:|2 G3 GBd||
|:g2 g gfg|a2 g fed|efe def|gdB GBd|
gfg gfg|a2 g fed|efe def|1 g3 g2 d|2 g3 g2||

